!!!COA: Josquin des Prez
!!!CDT: ~1450-1521/08/27
!!!COA2: La Rue, Pierre de
!!!CDT2: ~1452///-1518/11/20/
!!!OTL@@FRA: Dictez moy bergere
!!!AGN: Chanson
!!!SCT: NJE 28.10
!!!SCA: New Josquin Edition 28.10
!!!voices: 4
**kern	**kern	**kern	**kern
*staff4	*staff3	*staff2	*staff1
*Ivox	*Ivox	*Ivox	*Ivox
*I"Bassus	*I"Tenor	*I"Altus	*I"Superius
*I'B	*I'T	*I'A	*I'S
*clefF4	*clefGv2	*clefGv2	*clefG2
*k[]	*k[b-]	*k[]	*k[b-]
*M2/1	*M2/1	*M2/1	*M2/1
*met(C|)	*met(C|)	*met(C|)	*met(C|)
=1-	=1-	=1-	=1-
!	!	!	!LO:TX:Z=10:t=4-ex-2 canon (B/T & A/S both at the upper fourth)
0G	0r	0d	0r
=2	=2	=2	=2
1C	0c	1e	0g
1C	.	1e	.
=3	=3	=3	=3
1F	1F	1.f	1a
1D	1F	.	1a
.	.	2e\	.
=4	=4	=4	=4
0G	1B-	1d	1.b-
.	1G	[1g	.
.	.	.	2a/
=5	=5	=5	=5
1C	0c	2g\]	1g
.	.	2f\	.
1C	.	[1e	[1cc
=6	=6	=6	=6
1D	1F	2e\]	2cc\]
.	.	2d\	2b-\
1D	1F	[1d	[1a
=7	=7	=7	=7
0E	1G	1d]	2a/]
.	.	.	2g/
.	1G	1c#i	[1g
=8	=8	=8	=8
0D	0A	0d	1g]
.	.	.	1f#i
=9	=9	=9	=9
0r	0G	1r	0g
.	.	1d	.
=10	=10	=10	=10
1r	0r	1e	1r
1C	.	1g	1g
=11	=11	=11	=11
1F	1r	1f	1a
1F	1F	1a	1cc
=12	=12	=12	=12
1G	1B-	1g	1b-
1G	1B-	[1g	1dd
=13	=13	=13	=13
0A	1c	2g\]	1cc
.	.	4f#i\	.
.	.	4e\	.
.	1c	1f#i	[1cc
=14	=14	=14	=14
0G	0d	0g	2cc\]
.	.	.	4bni\
.	.	.	4a/
.	.	.	1bni
=15	=15	=15	=15
0r	0c	0r	0cc
=16	=16	=16	=16
1.G	0r	1r	0r
.	.	[1g	.
2F\	.	.	.
=17	=17	=17	=17
2E\	1.c	2g\]	1r
2D\	.	2f\	.
1C	.	2e\	[1cc
.	2B-\	2d\	.
=18	=18	=18	=18
1r	2A/	2c\	2cc\]
.	2G/	4d\	2b-\
.	.	4e\	.
1F	1F	[1f	2a/
.	.	.	2g/
=19	=19	=19	=19
0D	1r	2f\]	2f/
.	.	2e\	4g/
.	.	.	4a/
.	1B-	[1d	[1b-
=20	=20	=20	=20
0E	0G	2d\]	2b-\]
.	.	4c#i\	2a/
.	.	4B\	.
.	.	1c#i	[1g
=21	=21	=21	=21
0D	0A	0d	2g/]
.	.	.	4f#i/
.	.	.	4e/
.	.	.	1f#i
=22	=22	=22	=22
0r	0G	1r	0g
.	.	1d	.
=23	=23	=23	=23
0G	0r	1e	1r
.	.	1e	1g
=24	=24	=24	=24
1F	0c	1.f	1a
1F	.	.	1a
.	.	2e\	.
=25	=25	=25	=25
0G	1B-	0d	1.b-
.	1B-	.	.
.	.	.	2a/
=26	=26	=26	=26
1r	0c	1r	0g
1C	.	[1g	.
=27	=27	=27	=27
1F	1r	2g\]	1r
.	.	2f\	.
1F	1F	[1f	[1cc
=28	=28	=28	=28
0G	1B-	1f]	2cc\]
.	.	.	2b-\
.	1B-	1e	[1b-
=29	=29	=29	=29
0F	0c	0f	1b-]
.	.	.	1a
=30	=30	=30	=30
0r	0B-	0r	0b-
=31	=31	=31	=31
0G	0r	0d	0r
=32	=32	=32	=32
1C	0c	1e	0g
1C	.	1e	.
=33	=33	=33	=33
1F	1F	1.f	1a
1D	1F	.	1a
.	.	2e\	.
=34	=34	=34	=34
0G	1B-	1d	1.b-
.	1G	[1g	.
.	.	.	2a/
=35	=35	=35	=35
1C	0c	2g\]	1g
.	.	2f\	.
1C	.	[1e	[1cc
=36	=36	=36	=36
1D	1F	2e\]	2cc\]
.	.	2d\	2b-\
1D	1F	[1d	[1a
=37	=37	=37	=37
0E	1G	1d]	2a/]
.	.	.	2g/
.	1G	1c#i	[1g
=38	=38	=38	=38
0D	0A	0d	1g]
.	.	.	1f#i
=39	=39	=39	=39
0r	0G	1r	0g
.	.	1d	.
=40	=40	=40	=40
1r	0r	1e	1r
1C	.	1g	1g
=41	=41	=41	=41
1F	1r	1f	1a
1F	1F	1a	1cc
=42	=42	=42	=42
1G	1B-	1g	1b-
1G	1B-	[1g	1dd
=43	=43	=43	=43
0A	1c	2g\]	1cc
.	.	4f#i\	.
.	.	4e\	.
.	1c	1f#i	[1cc
=44	=44	=44	=44
0G	0d	0g	2cc\]
.	.	.	4bni\
.	.	.	4a/
.	.	.	1bni
=45	=45	=45	=45
0r	0c	0r	0cc
=46	=46	=46	=46
1.G	0r	1r	0r
.	.	[1g	.
2F\	.	.	.
=47	=47	=47	=47
2E\	1.c	2g\]	1r
2D\	.	2f\	.
1C	.	2e\	[1cc
.	2B-\	2d\	.
=48	=48	=48	=48
1r	2A/	1c	2cc\]
.	2G/	.	2b-\
[1D	1F	1r	2a/
.	.	.	2g/
=49	=49	=49	=49
2D\]	1r	1.d	1f
2C/	.	.	.
2BB/	[1G	.	1r
2AA/	.	2c\	.
=50	=50	=50	=50
1GG	2G/]	2B\	1.g
.	2F/	2A/	.
1GG	2E/	1G	.
.	2D/	.	2f/
=51	=51	=51	=51
1.G	1C	1r	2e/
.	.	.	2d/
.	1C	[1g	1c
2F\	.	.	.
=52	=52	=52	=52
2E\	1.c	2g\]	1r
2D\	.	2f\	.
1C	.	2e\	[1cc
.	2B-\	2d\	.
=53	=53	=53	=53
1r	2A/	2c\	2cc\]
.	2G/	4d\	2b-\
.	.	4e\	.
1F	1F	[1f	2a/
.	.	.	2g/
=54	=54	=54	=54
0D	1r	2f\]	2f/
.	.	2e\	4g/
.	.	.	4a/
.	1B-	[1d	[1b-
=55	=55	=55	=55
0E	0G	2d\]	2b-\]
.	.	4c#i\	2a/
.	.	4B\	.
.	.	1c#i	[1g
=56	=56	=56	=56
0D	0A	0d	2g/]
.	.	.	4f#i/
.	.	.	4e/
.	.	.	1f#i
=57	=57	=57	=57
0GGl	0Gl	0dl	0gl
==	==	==	==
*-	*-	*-	*-
!!!RDF**kern: l=long note in original notation
!!!RDF**kern: i=editorial accidental
!!!ENC: Jesse Rodin; Victoria Chang 2011/07/27
!!!END: 2011/07/27/
!!!EED: Jesse Rodin
!!!EEV: 2011/08/11/
!!attribution-level@Jos: 4 (questionable)
!!!ONB: Translated from MusicXML and edited on 2011/08/11/ by Craig Sapp
!!muse2ps:  C^La Rue?/Josquin?\n@{SCT}^v90,90,90,150I150Q16
